!!!COM: Richard Strauss
!!!CNT: Deutscher
!!!TXO: Deutsche 
!!!OTL: "Wie sollten wir geheim sie halten"
!!!OPS: Opus 19
!!!ONM: No. 4
!!!LYR: A. Fr. Graf v. Schack
!!!ENC: Brian Bice
!!!YOR: Lieder, Complete Edition, vol. 1
!!!ODT: 1888/
!!NB: Vocal melody and text only encoded.
**kern	**silbe
*clefG2	*
*k[f#c#g#]	*
*M4/4	*
=1	=1
2r	.
4r	.
{H4ee	{Wie
=2	=2
4.ah	soll-
8b	-ten
4cc#	wir
H4ee	ge-
=3	=3
4.ah	-heim
8b	sie
4cc#	hal-
8g#}	-ten,}
{8a	{die
=4	=4
(8b	Se-
4cc#)	|
8dd	-lig-
4ee	-keit,
12cc#	die
12dd	uns
12ee	er-
=5	=5
H1ff#}	-fu2llt?}
=6	=6
{4aah	{Nein,
8gg#	bis
8ff#	in
8ee	sei-
8dd	-ne
(ddq	tief
8.ff#)	|
16cc#	-sten
=7	=7
4cc#	Fal-
4b}	-ten}
4r	.
{4b	{sei
=8	=8
[2ff#	al-
8ff#]	|
8dd#	-len
8b	un-
8a	-ser
=9	=9
2.ee	Herz
4b	ent-
=10	=10
4cc#}	-hu2llt!}
{4cc#	{Wenn
4g#	zwei
4a	in
=11	=11
8f#	Lie-
8g#	-be
8.e	ich
16a	ge-
4b	-fun-
(12cc#	-den,
12dd)}	|}
{12dd#	{geht
=12	=12
(12ee	Ju-
12gg#)	|
12ff#	-bel
2ee	hin
12cc#	durch
12dd#	die
12ee	Na-
=13	=13
2.gg#}	-tur,}
{4gg#	{in
=14	=14
4.gg#	la2n-
8ff#	-gern
8ee#	won-
8dd#	-ne-
8b	-vol-
8cc#	-len
=15	=15
4cc##	Stun-
4dd#}	-den}
8r	.
{8dd#	{legt
8cc#	sich
8b	der
=16	=16
4.a#	Tag
8a#	auf
4.ff#	Wald
8b#	und
=17	=17
2cc#}	Flur.}
2r	.
=18	=18
{4an	{Selbst
8.an	aus
16an	der
4.dd	Ei-
8d	-che
=19	=19
4e	mor-
4f#	-schem
8a}	Stamm,}
{8f#	{die
8gn	ein
8a	Jahr-
=20	=20
4b	-tau-
4b	-send
4.cc#	u2-
8cc#	-ber-
=21	=21
4dd}	-lebt,}
{4dd	{steigt
([2dd	neu
=22	=22
6dd]	|
6b)	|
6cc#	des
3dd	Wip-
6dd	-fels
=23	=23
([4dd#	gru2-
12dd#]	|
12ee)	|
12ff#	-ne
4ff#	Flam-
4ee}	-me}
=24	=24
4r	.
{4ee	{und
4.ee-	rauscht
8ccn	von
=25	=25
8ggn	Ju-
4een	|
8ccn	-gend-
[2gn	-lust
=26	=26
4gn]	|
4fn	durch-
4e}	-bebt.}
{(8ccn	{Zu
8b)	|
=27	=27
4.b-	ho2-
8b-	-herm
4.ffn	Glanz
8b-	und
=28	=28
4.b-	Duf-
8b-	-te
4a#	bre-
8bn}	-chen}
{8b#	{die
=29	=29
4.cc#	Knos-
8cc#	-pen
4.cc#	auf
8cc#	beim
=30	=30
(12cc#	Glu2ck
12dd)	|
12dd#	der
(2ff#	Zwei
8ee)}	|}
{8ee	{und
=31	=31
4.ee	su2s-
8dd	-ser
8cc#	rauscht
8b	es
8a	in
8gn	den
=32	=32
2dd	Ba2-
4a}	-chen}
{4dd	{und
=33	=33
4.ff#	rei-
8ee	-cher
4dd	blu2ht
4a	und
=34	=34
4.aa	rei-
8gg#	-cher
(8ff#	gla2nzt
8ee	|
8dd#)	|
16r	.
16cc#	der
=35	=35
2.b}	Mai.}
4r	.
=36	=36
2r	.
4r	.
{H4ee	{Wie
=37	=37
4.ah	soll-
8b	-ten
4cc#	wir
H4ee	ge-
=38	=38
4.ah	-heim
8b	sie
4cc#	hal-
8g#}	-ten,}
{8a	{die
=39	=39
(8b	Se-
4cc#)	|
8dd	-lig-
4ee	-keit,
12cc#	die
12dd	uns
12ee	er-
=40	=40
H1ff#}	-fu2llt?}
=41	=41
{4aah	{Nein,
8gg#	bis
8ff#	in
8ee	sei-
8dd	-ne
(ddq	tief-
8.ff#)	|
16cc#	-sten
=42	=42
4cc#	Fal-
4b}	-ten}
4r	.
{4b	{sei
=43	=43
([2aa	al-
8aa]	|
8dd#)	|
8ee	-len,
8ff#	sei
=44	=44
4.ee	al-
8cc#	-len
8b	un-
8cc#	-ser
(eeq	Herz
8.dd)	|
16b	ent-
=45	=45
4a}	-hu2llt.}
4r	.
2r	.
*-	*-
